Adwaita++/actions/22/media-eject.svg

<svg height="22" viewBox="0 0 22 22" width="22" xmlns="http://www.w3.org/2000/svg">
  <path d="m8 3-5 5v1h10v-1zm-5 8v2h10v-2z" fill="#444" transform="translate(3 3)"/>
</svg>

<svg xmlns="http://www.w3.org/2000/svg" width="22" height="22" viewBox="0 0 22 22">
 <defs>
  <style id="current-color-scheme" type="text/css">
   .ColorScheme-Text { color:#444444; } .ColorScheme-Highlight { color:#4285f4; }
  </style>
 </defs>
 <path style="fill:currentColor" class="ColorScheme-Text" d="M 8 3 L 3 8 L 3 9 L 13 9 L 13 8 L 8 3 z M 3 11 L 3 13 L 13 13 L 13 11 L 3 11 z" transform="translate(3 3)"/>
</svg>
